svg/incident_resolved.svg

<svg xmlns="http://www.w3.org/2000/svg" width="24" height="24" viewBox="0 0 24 24"><title>resolved_incident</title><path d="M15 4a8 8 0 1 0 8 8 8 8 0 0 0-8-8zm0 14a6 6 0 1 1 6-6 6 6 0 0 1-6 6z"/><path d="M0 0h24v24H0z" fill="none"/><path d="M3 12a6 6 0 0 1 4-5.65V4.26a8 8 0 0 0 0 15.48v-2.09A6 6 0 0 1 3 12zM17.67 13v-2.33A2.66 2.66 0 0 0 16 8.2V8a1 1 0 0 0-2 0v.2a2.66 2.66 0 0 0-1.67 2.47V13L11 14v1h8v-1zM15 17a1 1 0 0 0 1-1h-2a1 1 0 0 0 1 1z"/></svg>

<svg xmlns="http://www.w3.org/2000/svg" width="24" height="24" viewBox="0 0 24 24">
  <title>resolved_incident</title>
  <path d="M15,4a8,8,0,1,0,8,8A8,8,0,0,0,15,4Zm0,14a6,6,0,1,1,6-6A6,6,0,0,1,15,18Z"/>
  <path d="M0,0H24V24H0Z" fill="none"/>
  <path d="M3,12A6,6,0,0,1,7,6.35V4.26A8,8,0,0,0,7,19.74V17.65A6,6,0,0,1,3,12Z"/>
  <g>
    <path d="M17.67,13V10.67A2.66,2.66,0,0,0,16,8.2V8a1,1,0,0,0-2,0v.2a2.66,2.66,0,0,0-1.67,2.47V13L11,14v1h8V14Z"/>
    <path d="M15,17a1,1,0,0,0,1-1H14A1,1,0,0,0,15,17Z"/>
  </g>
</svg>
